X: 1
T: Nouveau d\'epart
C: R\'emy Geffroy
R: mazurka
S: Handout at 2014 NEFFA
Z: 2015 John Chambers <jc:trillian.mit.edu>
M: 3/4
L: 1/8
K: Em
|:\
"Em"B2 GA BG | "D"A2 FG AF | "C"G2 GF EG | "D"F2 G2 A2 |\
"Em"B2 GA BG | "D"A2 FG AF | "C"G3 "D"F3  | "Em"E6 :|
|:\
"Em"B,E BG AG | "D"FG AF GA | "C"cB "G"AB "C"GA | "D(Bm)"F2 G2 A2 |\
"Em"B,E BG AG | "D"FG AF GA | "C"cB "G"AB "D"FG | "Em"E6 :|
